images/hospital.svg

<?xml version="1.0" encoding="UTF-8" standalone="no"?>
<svg xmlns:dc="http://purl.org/dc/elements/1.1/" xmlns:cc="http://creativecommons.org/ns#" xmlns:rdf="http://www.w3.org/1999/02/22-rdf-syntax-ns#" xmlns:svg="http://www.w3.org/2000/svg" xmlns="http://www.w3.org/2000/svg" xmlns:sodipodi="http://sodipodi.sourceforge.net/DTD/sodipodi-0.dtd" xmlns:inkscape="http://www.inkscape.org/namespaces/inkscape" width="14" height="14" version="1.1" viewBox="0 0 3.7042 3.7042" id="svg958" sodipodi:docname="hospital.svg" inkscape:version="0.92.3 (2405546, 2018-03-11)">
  <metadata id="metadata964">
    <rdf:RDF>
      <cc:Work rdf:about="">
        <dc:format>image/svg+xml</dc:format>
        <dc:type rdf:resource="http://purl.org/dc/dcmitype/StillImage" />
        <dc:title></dc:title>
      </cc:Work>
    </rdf:RDF>
  </metadata>
  <defs id="defs962" />
  <sodipodi:namedview pagecolor="#ffffff" bordercolor="#666666" borderopacity="1" objecttolerance="10" gridtolerance="10" guidetolerance="10" inkscape:pageopacity="0" inkscape:pageshadow="2" inkscape:window-width="1881" inkscape:window-height="1051" id="namedview960" showgrid="false" inkscape:zoom="23.8396" inkscape:cx="-1.0117735" inkscape:cy="6.6524996" inkscape:window-x="0" inkscape:window-y="0" inkscape:window-maximized="1" inkscape:current-layer="svg958" inkscape:pagecheckerboard="true" />
  <path inkscape:connector-curvature="0" style="fill:none;stroke:#fcfcfc;stroke-width:0.79375714;stroke-miterlimit:4;stroke-dasharray:none;stroke-opacity:0.50196078;stroke-linecap:round" d="M 1.85206,0 A 1.85206,1.85206 0 0 0 0,1.85206 A 1.85206,1.85206 0 0 0 1.85206,3.70412 A 1.85206,1.85206 0 0 0 3.70412,1.85206 A 1.85206,1.85206 0 0 0 1.85206,0 Z M 1.58748,0.79374 H 2.11664 V 1.58748 H 2.91038 V 2.11664 H 2.11664 V 2.91038 H 1.58748 V 2.11664 H 0.79374 V 1.58748 H 1.58748 Z" id="outline" />
  <path style="fill:#000000;stroke-width:0.26458001" inkscape:connector-curvature="0" id="path954" d="M 1.85206,0 A 1.85206,1.85206 0 0 0 0,1.85206 A 1.85206,1.85206 0 0 0 1.85206,3.70412 A 1.85206,1.85206 0 0 0 3.70412,1.85206 A 1.85206,1.85206 0 0 0 1.85206,0 Z M 1.58748,0.79374 H 2.11664 V 1.58748 H 2.91038 V 2.11664 H 2.11664 V 2.91038 H 1.58748 V 2.11664 H 0.79374 V 1.58748 H 1.58748 Z" />
</svg>

<svg xmlns="http://www.w3.org/2000/svg" width="14" height="14" viewBox="0 0 3.704 3.704">
    <path d="M1.852 0A1.852 1.852 0 000 1.852a1.852 1.852 0 001.852 1.852 1.852 1.852 0 001.852-1.852A1.852 1.852 0 001.852 0zm-.265.794h.53v.793h.793v.53h-.793v.793h-.53v-.793H.794v-.53h.793z" fill="none" stroke="#fcfcfc" stroke-width=".794" stroke-opacity=".5" stroke-linecap="round"/>
    <path d="M1.852 0A1.852 1.852 0 000 1.852a1.852 1.852 0 001.852 1.852 1.852 1.852 0 001.852-1.852A1.852 1.852 0 001.852 0zm-.265.794h.53v.793h.793v.53h-.793v.793h-.53v-.793H.794v-.53h.793z"/>
</svg>
